svgs/sharp-solid/table-layout.svg

<svg xmlns="http://www.w3.org/2000/svg" viewBox="0 0 512 512"><!--! Font Awesome Pro 6.6.0 by @fontawesome - https://fontawesome.com License - https://fontawesome.com/license (Commercial License) Copyright 2024 Fonticons, Inc. --><path d="M512 32L0 32 0 480l512 0 0-448zM448 96l0 64L64 160l0-64 384 0zM64 224l64 0 0 192-64 0 0-192zm384 0l0 192-256 0 0-192 256 0z"/></svg>

<svg xmlns="http://www.w3.org/2000/svg" viewBox="0 0 512 512"><!--! Font Awesome Pro 6.4.0 by @fontawesome - https://fontawesome.com License - https://fontawesome.com/license (Commercial License) Copyright 2023 Fonticons, Inc. --><path d="M512 32H0V480H512V32zM448 96v64H64V96H448zM64 224h64V416H64V224zm384 0V416H192V224H448z"/></svg>
